styles/1/Numix/32/places/grey-folder-saved-search.svg

<?xml version="1.0" encoding="UTF-8" standalone="no"?>
<!-- Created with Inkscape (http://www.inkscape.org/) -->

<svg
   xmlns:dc="http://purl.org/dc/elements/1.1/"
   xmlns:cc="http://creativecommons.org/ns#"
   xmlns:rdf="http://www.w3.org/1999/02/22-rdf-syntax-ns#"
   xmlns:svg="http://www.w3.org/2000/svg"
   xmlns="http://www.w3.org/2000/svg"
   xmlns:sodipodi="http://sodipodi.sourceforge.net/DTD/sodipodi-0.dtd"
   xmlns:inkscape="http://www.inkscape.org/namespaces/inkscape"
   width="32"
   height="32"
   id="svg2"
   version="1.1"
   inkscape:version="0.91 r"
   sodipodi:docname="grey-folder-saved-search.svg"
   inkscape:export-filename="/media/Data/Main/Visuals/Icons/Numix/Desktop/repos/numix-wiki/Gjorgi/Numix-folders/48/New/folder-144.png"
   inkscape:export-xdpi="270"
   inkscape:export-ydpi="270">
  <defs
     id="defs4" />
  <sodipodi:namedview
     id="base"
     pagecolor="#ffffff"
     bordercolor="#666666"
     borderopacity="1.0"
     inkscape:pageopacity="0.0"
     inkscape:pageshadow="2"
     inkscape:zoom="15.384061"
     inkscape:cx="20.874984"
     inkscape:cy="16.777502"
     inkscape:document-units="px"
     inkscape:current-layer="layer1"
     showgrid="true"
     inkscape:window-width="1280"
     inkscape:window-height="998"
     inkscape:window-x="0"
     inkscape:window-y="0"
     inkscape:window-maximized="1"
     showguides="true"
     inkscape:guide-bbox="true">
    <inkscape:grid
       type="xygrid"
       id="grid2985"
       empspacing="5"
       visible="true"
       enabled="true"
       snapvisiblegridlinesonly="true" />
  </sodipodi:namedview>
  <metadata
     id="metadata7">
    <rdf:RDF>
      <cc:Work
         rdf:about="">
        <dc:format>image/svg+xml</dc:format>
        <dc:type
           rdf:resource="http://purl.org/dc/dcmitype/StillImage" />
        <dc:title />
      </cc:Work>
    </rdf:RDF>
  </metadata>
  <g
     inkscape:label="Layer 1"
     inkscape:groupmode="layer"
     id="layer1"
     transform="translate(0,-1020.3622)">
    <path
       style="font-size:medium;font-style:normal;font-variant:normal;font-weight:normal;font-stretch:normal;text-indent:0;text-align:start;text-decoration:none;line-height:normal;letter-spacing:normal;word-spacing:normal;text-transform:none;direction:ltr;block-progression:tb;writing-mode:lr-tb;text-anchor:start;baseline-shift:baseline;color:#000000;fill:#bdbdbd;fill-opacity:1;fill-rule:nonzero;stroke:none;stroke-width:2.28612947;marker:none;visibility:visible;display:inline;overflow:visible;enable-background:accumulate;font-family:Sans;-inkscape-font-specification:Sans"
       d="M 2.03125 4 C 1.4665378 4.056 0.99079304 4.58885 1 5.15625 L 1 26.84375 C 0.99302 27.45105 1.5489584 28.007 2.15625 28 L 29.84375 28 C 30.451042 28.01 31.006984 27.45105 31 26.84375 L 31 7.15625 C 31.007 6.54895 30.451042 5.993 29.84375 6 L 19 6 L 19 5.15625 C 19.0069 4.55935 18.471863 4.0095 17.875 4 L 2.15625 4 L 2.03125 4 z M 18 10 C 20.761424 10 23 12.2386 23 15 C 23 17.7614 20.761424 20 18 20 C 16.940417 20 15.964944 19.687257 15.15625 19.125 C 15.107283 19.245341 15.035434 19.370816 14.9375 19.46875 L 10.71875 23.71875 C 10.327013 24.110487 9.6729872 24.110487 9.28125 23.71875 C 8.8895128 23.327013 8.8895129 22.672987 9.28125 22.28125 L 13.53125 18.0625 C 13.629184 17.964566 13.754659 17.892717 13.875 17.84375 C 13.312746 17.035056 13 16.059574 13 15 C 13 12.2386 15.238576 10 18 10 z M 18 12 C 16.343146 12 15 13.3431 15 15 C 15 16.6569 16.343146 18 18 18 C 19.656854 18 21 16.6569 21 15 C 21 13.3431 19.656854 12 18 12 z "
       transform="translate(0,1020.3622)"
       id="path3912" />
  </g>
</svg>

<!-- Created with Inkscape (http://www.inkscape.org/) -->
<svg xmlns="http://www.w3.org/2000/svg" viewBox="0 0 32 32">
 <g transform="translate(0,-1020.3622)">
  <path d="m 2.031 4 c -0.565 0.056 -1.04 0.589 -1.031 1.156 l 0 21.688 c -0.007 0.607 0.549 1.163 1.156 1.156 l 27.688 0 c 0.607 0.01 1.163 -0.549 1.156 -1.156 l 0 -19.688 c 0.007 -0.607 -0.549 -1.163 -1.156 -1.156 l -10.844 0 l 0 -0.844 c 0.007 -0.597 -0.528 -1.147 -1.125 -1.156 l -15.719 0 l -0.125 0 z m 15.969 6 c 2.761 0 5 2.239 5 5 c 0 2.761 -2.239 5 -5 5 c -1.06 0 -2.035 -0.313 -2.844 -0.875 c -0.049 0.12 -0.121 0.246 -0.219 0.344 l -4.219 4.25 c -0.392 0.392 -1.046 0.392 -1.438 0 c -0.392 -0.392 -0.392 -1.046 0 -1.438 l 4.25 -4.219 c 0.098 -0.098 0.223 -0.17 0.344 -0.219 c -0.562 -0.809 -0.875 -1.784 -0.875 -2.844 c 0 -2.761 2.239 -5 5 -5 z m 0 2 c -1.657 0 -3 1.343 -3 3 c 0 1.657 1.343 3 3 3 c 1.657 0 3 -1.343 3 -3 c 0 -1.657 -1.343 -3 -3 -3 z" transform="translate(0,1020.3622)" style="visibility:visible;fill:#bdbdbd;fill-opacity:1;stroke:none;display:inline;color:#000;fill-rule:nonzero"/>
 </g>
</svg>
